X:304
T: WIEDERSEHN WORT DES TROSTES
N: B0780
O: Europa, Mitteleuropa, Deutschland
R: Trost - Lied, Abschied
M: 4/4
L: 1/16
K: Eb
 | B12G4 | G8z4
E2G2 | B6B2B2c2d2e2 | d8z4
d2c2 | B6c2B4A4 | A4G4z4
G3F | F6E2E6D2 | C4D4E4
F2G2 | A6F2A2G2F2E2 | F8z8 |
c6A2d6B2 | e6B2B4G2E2 | B12D4 | E16

@@@ Tune index: 2522
